X: 1
T: Frank's Reel
C: John McCusker
R: reel
Z: 2006 John Chambers <jc:trillian.mit.edu>
M: C
L: 1/8
K: A
|: "A"AcBA "D"F2 AF | "A"EFAB cABc | "D"~d3f "A"eAce | "Bm"f{g}aec "E"B{c}dcB |
|  "A"AcBA "D"F2 AF | "A"EFAB cABc | "D"~d3f "A"ecAc |1 "E"BAGB    "A"A3E    :|2 "E"BAGB "A"Ae"(E7)"fg ||
[| "A"aAAg "D"AAfA  | "A"effe cABc | "D"~d3f "A"ecAc | "Bm"Bcde   "E7"fefg    |
|  "A"aAAg "D"AAfA  | "A"effe cABc | "D"~d3f "A"ecAc |  "E"BAGB    "A"Ae"(E7)"fg ||
|| "A"aAAg "D"AAfA  | "A"effe cABc | "D"~d3f "A"eAce | "Bm"f{g}aec "E"B{c}dcB |
|  "A"AcBA "D"F2 AF | "A"EFAB cABc | "D"~d3f "A"ecAc |  "E"BAGB    "A"A4      |]
